storage/app/icons/phosphoricons/bold/check-square-offset-bold.svg

<svg xmlns="http://www.w3.org/2000/svg" fill="currentColor" viewBox="0 0 256 256"><path d="M228 48v160a20 20 0 0 1-20 20h-68a12 12 0 0 1 0-24h64V52H52v88a12 12 0 0 1-24 0V48a20 20 0 0 1 20-20h160a20 20 0 0 1 20 20m-99.51 103.51a12 12 0 0 0-17 0L64 199l-15.51-15.49a12 12 0 1 0-17 17l24 24a12 12 0 0 0 17 0l56-56a12 12 0 0 0 0-17"/></svg>

<svg xmlns="http://www.w3.org/2000/svg" viewBox="0 0 256 256" fill="currentColor"><path d="M228,48V208a20,20,0,0,1-20,20H140a12,12,0,0,1,0-24h64V52H52v88a12,12,0,0,1-24,0V48A20,20,0,0,1,48,28H208A20,20,0,0,1,228,48ZM128.49,151.51a12,12,0,0,0-17,0L64,199,48.49,183.51a12,12,0,1,0-17,17l24,24a12,12,0,0,0,17,0l56-56A12,12,0,0,0,128.49,151.51Z"/></svg>
